MonoIcons/scalable/status/channel-insecure-symbolic.svg

<?xml version="1.0" encoding="UTF-8"?>
<svg height="16px" viewBox="0 0 16 16" width="16px" xmlns="http://www.w3.org/2000/svg">
    <path d="m 8 0 c -2.199219 0 -4 1.800781 -4 4 v 1 c 0 0.550781 0.449219 1 1 1 s 1 -0.449219 1 -1 v -1 c 0 -1.125 0.875 -2 2 -2 s 2 0.875 2 2 v 3 h 2 v -3 c 0 -2.199219 -1.800781 -4 -4 -4 z m -4 8 c -1.109375 0 -2 0.890625 -2 2 v 5 c 0 0.554688 0.445312 1 1 1 h 4 v -8 z m 0 0" fill="#2e3436"/>
    <path d="m 9.5 8 c -0.832031 0 -1.5 0.667969 -1.5 1.5 v 5 c 0 0.832031 0.667969 1.5 1.5 1.5 h 5 c 0.832031 0 1.5 -0.667969 1.5 -1.5 v -5 c 0 -0.832031 -0.667969 -1.5 -1.5 -1.5 z m 1.5 1 h 2 v 2.5 s 0 0.5 -0.5 0.5 h -1 c -0.5 0 -0.5 -0.5 -0.5 -0.5 z m 0.5 4 h 1 c 0.277344 0 0.5 0.222656 0.5 0.5 v 1 c 0 0.277344 -0.222656 0.5 -0.5 0.5 h -1 c -0.277344 0 -0.5 -0.222656 -0.5 -0.5 v -1 c 0 -0.277344 0.222656 -0.5 0.5 -0.5 z m 0 0" class="warning" fill="#ff7800"/>
</svg>

<svg width="16" height="16" viewBox="0 0 16 16" fill="none" xmlns="http://www.w3.org/2000/svg">
<path d="M8 0C5.80078 0 4 1.80078 4 4V5C4 5.55078 4.44922 6 5 6C5.55078 6 6 5.55078 6 5V4C6 2.875 6.875 2 8 2C9.125 2 10 2.875 10 4V7H12V4C12 1.80078 10.1992 0 8 0ZM4 8C2.89062 8 2 8.89062 2 10V15C2 15.5547 2.44531 16 3 16H7V8H4Z" fill="#2E3436"/>
<path d="M9.5 8C8.66797 8 8 8.66797 8 9.5V14.5C8 15.332 8.66797 16 9.5 16H14.5C15.332 16 16 15.332 16 14.5V9.5C16 8.66797 15.332 8 14.5 8H9.5ZM11 9H13V11.5C13 11.5 13 12 12.5 12H11.5C11 12 11 11.5 11 11.5V9ZM11.5 13H12.5C12.7773 13 13 13.2227 13 13.5V14.5C13 14.7773 12.7773 15 12.5 15H11.5C11.2227 15 11 14.7773 11 14.5V13.5C11 13.2227 11.2227 13 11.5 13Z" fill="#00FF00"/>
</svg>
